icons/chevrons-out-vertical.svg

<svg xmlns="http://www.w3.org/2000/svg" width="24" height="24" viewBox="0 0 24 24">
  <path d="M5.38710056,14.2097046 C5.77939176,13.9046797 6.34662282,13.9324093 6.70710678,14.2928932 L6.70710678,14.2928932 L12,19.585 L17.2928932,14.2928932 L17.3871006,14.2097046 C17.7793918,13.9046797 18.3466228,13.9324093 18.7071068,14.2928932 C19.0976311,14.6834175 19.0976311,15.3165825 18.7071068,15.7071068 L18.7071068,15.7071068 L12.7071068,21.7071068 L12.6128994,21.7902954 C12.2206082,22.0953203 11.6533772,22.0675907 11.2928932,21.7071068 L11.2928932,21.7071068 L5.29289322,15.7071068 L5.20970461,15.6128994 C4.90467972,15.2206082 4.93240926,14.6533772 5.29289322,14.2928932 L5.29289322,14.2928932 Z M12.6128994,2.20970461 L12.7071068,2.29289322 L18.7071068,8.29289322 C19.0976311,8.68341751 19.0976311,9.31658249 18.7071068,9.70710678 C18.3466228,10.0675907 17.7793918,10.0953203 17.3871006,9.79029539 L17.2928932,9.70710678 L12,4.415 L6.70710678,9.70710678 C6.34662282,10.0675907 5.77939176,10.0953203 5.38710056,9.79029539 L5.29289322,9.70710678 C4.93240926,9.34662282 4.90467972,8.77939176 5.20970461,8.38710056 L5.29289322,8.29289322 L11.2928932,2.29289322 C11.6533772,1.93240926 12.2206082,1.90467972 12.6128994,2.20970461 Z"/>
</svg>

<svg xmlns="http://www.w3.org/2000/svg" viewBox="0 0 24 24">
  <path d="M5.39 14.21a1 1 0 0 1 1.32.08L12 19.6l5.3-5.3.09-.08a1 1 0 0 1 1.32 1.5l-6 6-.1.08a1 1 0 0 1-1.32-.08l-6-6-.08-.1a1 1 0 0 1 .08-1.32zm7.22-12 .1.08 6 6a1 1 0 0 1-1.32 1.5l-.1-.08L12 4.4 6.7 9.7a1 1 0 0 1-1.31.08l-.1-.08a1 1 0 0 1-.08-1.32l.08-.1 6-6a1 1 0 0 1 1.32-.08z"/>
</svg>
